images/icon-telegram.svg

<svg width="48" height="48" fill="none" xmlns="http://www.w3.org/2000/svg"><path d="M24 48c13.255 0 24-10.745 24-24S37.255 0 24 0 0 10.745 0 24s10.745 24 24 24Z" fill="url(#a)"/><path fill-rule="evenodd" clip-rule="evenodd" d="M10.864 23.747c6.996-3.049 11.662-5.058 13.996-6.03 6.665-2.771 8.05-3.253 8.953-3.269.198-.003.642.046.93.28.242.196.31.462.341.65.032.186.072.611.04.944-.36 3.795-1.924 13.004-2.719 17.255-.336 1.798-.998 2.401-1.64 2.46-1.394.129-2.452-.92-3.802-1.806-2.112-1.384-3.305-2.246-5.356-3.597-2.37-1.562-.833-2.42.517-3.823.354-.367 6.494-5.952 6.613-6.459.015-.063.029-.3-.111-.424-.14-.125-.348-.082-.497-.049-.212.049-3.587 2.279-10.124 6.692-.957.657-1.825.978-2.602.961-.857-.018-2.506-.485-3.731-.883-1.503-.488-2.698-.747-2.594-1.576.055-.433.65-.875 1.786-1.326Z" fill="#fff"/><defs><linearGradient id="a" x1="24" y1="0" x2="24" y2="47.644" gradientUnits="userSpaceOnUse"><stop stop-color="#2AABEE"/><stop offset="1" stop-color="#229ED9"/></linearGradient></defs></svg>

<svg width="48" height="48" viewBox="0 0 48 48" fill="none" xmlns="http://www.w3.org/2000/svg">
<g clip-path="url(#clip0_208_151)">
<path d="M24 48C37.255 48 48 37.255 48 24C48 10.745 37.255 0 24 0C10.745 0 0 10.745 0 24C0 37.255 10.745 48 24 48Z" fill="url(#paint0_linear_208_151)"/>
<path fill-rule="evenodd" clip-rule="evenodd" d="M10.864 23.747C17.86 20.698 22.526 18.689 24.86 17.717C31.525 14.946 32.91 14.464 33.813 14.448C34.011 14.445 34.455 14.494 34.743 14.728C34.985 14.924 35.053 15.19 35.084 15.378C35.116 15.564 35.156 15.989 35.124 16.322C34.764 20.117 33.2 29.326 32.405 33.577C32.069 35.375 31.407 35.978 30.765 36.037C29.371 36.166 28.313 35.117 26.963 34.231C24.851 32.847 23.658 31.985 21.607 30.634C19.237 29.072 20.774 28.214 22.124 26.811C22.478 26.444 28.618 20.859 28.737 20.352C28.752 20.289 28.766 20.052 28.626 19.928C28.486 19.803 28.278 19.846 28.129 19.879C27.917 19.928 24.542 22.158 18.005 26.571C17.048 27.228 16.18 27.549 15.403 27.532C14.546 27.514 12.897 27.047 11.672 26.649C10.169 26.161 8.97403 25.902 9.07803 25.073C9.13303 24.64 9.72803 24.198 10.864 23.747Z" fill="white"/>
</g>
<defs>
<linearGradient id="paint0_linear_208_151" x1="-2.29859" y1="24.0001" x2="48" y2="24.0001" gradientUnits="userSpaceOnUse">
<stop offset="0.0260229" stop-color="#13B0F5"/>
<stop offset="1" stop-color="#E70FAA"/>
</linearGradient>
<clipPath id="clip0_208_151">
<rect width="48" height="48" fill="white"/>
</clipPath>
</defs>
</svg>
